;FLAVOR:Marlin
;TIME:9881
;Filament used: 5.54492m
;Layer height: 0.2
;MINX:79.71
;MINY:80.843
;MINZ:0.2
;MAXX:155.51
;MAXY:154.959
;MAXZ:13.8
;Generated with Cura_SteamEngine 4.13.0
M140 S50
M105
M190 S50
M104 S200
M105
M109 S200
M82 ;absolute extrusion mode
; Ender 3 Custom Start G-code
G92 E0 ; Reset Extruder
G28 ; Home all axes
G1 Z2.0 F3000 ; Move Z Axis up little to prevent scratching of Heat Bed
G1 X0.1 Y20 Z0.3 F5000.0 ; Move to start position
G1 X0.1 Y200.0 Z0.3 F1500.0 E15 ; Draw the first line
G1 X0.4 Y200.0 Z0.3 F5000.0 ; Move to side a little
G1 X0.4 Y20 Z0.3 F1500.0 E30 ; Draw the second line
G92 E0 ; Reset Extruder
G1 Z2.0 F3000 ; Move Z Axis up little to prevent scratching of Heat Bed
G1 X5 Y20 Z0.3 F5000.0 ; Move over to prevent blob squish
G92 E0
G92 E0
G1 F2700 E-5
;LAYER_COUNT:69
;LAYER:0
M107
;MESH:esp32_case.obj
G0 F6000 X86.997 Y150.383 Z0.2
;TYPE:WALL-INNER
G1 F2700 E0
G1 F1200 X86.997 Y148.527 E0.06173
G1 X87.104 Y148.329 E0.06922
G1 X87.233 Y147.903 E0.08402
G1 X87.278 Y147.459 E0.09886
G1 X87.233 Y147.013 E0.11377
G1 X87.105 Y146.595 E0.12831
G1 X87.003 Y146.391 E0.1359
G1 X87.003 Y100.224 E1.67142
G1 X87.104 Y100.036 E1.67852
G1 X87.233 Y99.61 E1.69332
G1 X87.278 Y99.166 E1.70817
G1 X87.233 Y98.722 E1.72301
G1 X87.104 Y98.3 E1.73769
G1 X86.999 Y98.095 E1.74535
G1 X86.999 Y96.225 E1.80754
G1 X81.822 Y96.225 E1.97973
G1 X81.902 Y95.976 E1.98843
G1 X82.04 Y95.688 E1.99905
G1 X82.219 Y95.419 E2.0098
G1 X82.433 Y95.173 E2.02064
G1 X82.675 Y94.964 E2.03128
G1 X82.943 Y94.789 E2.04192
G1 X83.236 Y94.651 E2.0527
G1 X83.517 Y94.561 E2.06251
G1 X83.799 Y94.51 E2.07204
G1 X84.088 Y94.523 E2.08166
G1 X92.629 Y94.488 E2.36574
G1 X100.971 Y94.489 E2.6432
G1 X101.139 Y94.487 E2.64878
G1 X109.411 Y94.523 E2.92391
G1 X109.716 Y94.511 E2.93407
G1 X109.994 Y94.564 E2.94348
G1 X110.344 Y94.684 E2.95579
G1 X110.702 Y94.877 E2.96931
G1 X111.023 Y95.129 E2.98289
G1 X111.281 Y95.417 E2.99575
G1 X111.4 Y95.589 E3.0027
G1 X111.583 Y95.939 E3.01584
G1 X111.673 Y96.225 E3.02581
G1 X106.441 Y96.225 E3.19983
G1 X106.441 Y98.213 E3.26595
G1 X106.396 Y98.296 E3.26909
G1 X106.267 Y98.722 E3.28389
G1 X106.222 Y99.166 E3.29874
G1 X106.267 Y99.61 E3.31358
G1 X106.396 Y100.036 E3.32838
G1 X106.454 Y100.144 E3.33246
G1 X106.454 Y146.481 E4.87364
G1 X106.396 Y146.589 E4.87771
G1 X106.267 Y147.015 E4.89252
G1 X106.222 Y147.459 E4.90736
G1 X106.267 Y147.903 E4.9222
G1 X106.396 Y148.329 E4.93701
G1 X106.46 Y148.447 E4.94147
G1 X106.46 Y150.383 E5.00587
G1 X111.679 Y150.383 E5.17945
G1 X111.662 Y150.46 E5.18207
G1 X111.548 Y150.765 E5.1929
G1 X111.365 Y151.092 E5.20537
G1 X111.141 Y151.375 E5.21737
G1 X110.89 Y151.611 E5.22883
G1 X110.588 Y151.819 E5.24103
G1 X110.269 Y151.973 E5.25281
G1 X109.829 Y152.099 E5.26803
G1 X109.427 Y152.102 E5.2814
G1 X100.871 Y152.137 E5.56598
G1 X92.529 Y152.136 E5.84343
G1 X92.361 Y152.138 E5.84902
G1 X84.074 Y152.102 E6.12465
G1 X83.682 Y152.101 E6.13769
G1 X83.228 Y151.972 E6.15339
G1 X83.026 Y151.88 E6.16077
G1 X82.794 Y151.746 E6.16968
G1 X82.429 Y151.45 E6.18531
G1 X82.267 Y151.269 E6.19339
G1 X82.118 Y151.067 E6.20174
G1 X82.006 Y150.876 E6.2091
G1 X81.901 Y150.647 E6.21748
G1 X81.818 Y150.383 E6.22669
G1 X86.997 Y150.383 E6.39894
G0 F6000 X86.597 Y149.983
;TYPE:WALL-OUTER
G1 F1200 X86.597 Y148.426 E6.45073
G1 X86.733 Y148.174 E6.46025
G1 X86.839 Y147.824 E6.47241
G1 X86.876 Y147.459 E6.48462
G1 X86.839 Y147.093 E6.49685
G1 X86.732 Y146.744 E6.50899
G1 X86.603 Y146.485 E6.51862
G1 X86.603 Y100.123 E8.06062
G1 X86.733 Y99.882 E8.06973
G1 X86.839 Y99.531 E8.08192
G1 X86.876 Y99.166 E8.09413
G1 X86.839 Y98.801 E8.10633
G1 X86.732 Y98.451 E8.1185
G1 X86.599 Y98.192 E8.12819
G1 X86.599 Y96.625 E8.1803
G1 X81.679 Y96.625 E8.34394
G1 X81.679 Y149.983 E10.11864
G1 X86.597 Y149.983 E10.28221
G1 F2700 E5.28221
G0 F6000 X86.797 Y149.983
G0 X87.179 Y150.565
G0 X82.075 Y150.572
G0 X82.403 Y151.166
G0 X83.106 Y151.729
G0 X83.706 Y151.93
G0 X109.803 Y151.928
G0 X110.501 Y151.672
G0 X110.916 Y151.339
G0 X111.938 Y149.983
G1 F2700 E10.28221
G0 F6000 X111.738 Y149.983
G1 F1200 X111.738 Y96.625 E12.05691
G1 X106.841 Y96.625 E12.21978
G1 X106.841 Y98.314 E12.27596
G1 X106.767 Y98.451 E12.28114
G1 X106.661 Y98.801 E12.2933
G1 X106.624 Y99.166 E12.3055
G1 X106.661 Y99.531 E12.3177
G1 X106.767 Y99.882 E12.3299
G1 X106.854 Y100.043 E12.33598
G1 X106.854 Y146.582 E13.88388
G1 X106.767 Y146.743 E13.88997
G1 X106.661 Y147.094 E13.90216
G1 X106.624 Y147.459 E13.91436
G1 X106.661 Y147.824 E13.92656
G1 X106.767 Y148.174 E13.93873
G1 X106.86 Y148.346 E13.94523
G1 X106.86 Y149.983 E13.99968
G1 X111.738 Y149.983 E14.16192
G1 F2700 E9.16192
G0 F6000 X111.938 Y149.983
G0 X111.015 Y151.259
G0 X109.65 Y152.325
G1 F2700 E14.16192
G0 F6000 X109.65 Y152.525
G1 F1200 X109.409 Y152.502 E14.16997
G1 X100.873 Y152.537 E14.45388
G1 X92.531 Y152.536 E14.73134
G1 X92.364 Y152.538 E14.73689
G1 X84.091 Y152.502 E15.01206
G1 X83.838 Y152.525 E15.02051
G1 X83.6 Y152.493 E15.0285
G1 X83.338 Y152.432 E15.03744
G1 X83.081 Y152.344 E15.04648
G1 X82.838 Y152.234 E15.05535
G1 X82.576 Y152.082 E15.06542
G1 X82.366 Y151.929 E15.07407
G1 X82.142 Y151.729 E15.08405
G1 X81.958 Y151.524 E15.09322
G1 X81.781 Y151.283 E15.10316
G1 X81.65 Y151.06 E15.11176
G1 X81.532 Y150.803 E15.12117
G1 X81.446 Y150.553 E15.12996
G1 X81.385 Y150.291 E15.13891
G1 X81.353 Y150.042 E15.14726
G1 X81.375 Y149.804 E15.15521
G1 X81.368 Y146.307 E15.27152
G1 X81.383 Y140.968 E15.4491
G1 X81.384 Y105.657 E16.62354
G1 X81.367 Y100.319 E16.80109
G1 X81.375 Y96.826 E16.91727
G1 X81.362 Y96.488 E16.92852
G1 X81.429 Y96.14 E16.9403
G1 X81.53 Y95.826 E16.95127
G1 X81.692 Y95.489 E16.96371
G1 X81.899 Y95.176 E16.97619
G1 X82.147 Y94.891 E16.98876
G1 X82.433 Y94.645 E17.0013
G1 X82.752 Y94.437 E17.01397
G1 X83.086 Y94.279 E17.02626
G1 X83.422 Y94.171 E17.038
G1 X83.772 Y94.108 E17.04983
G1 X84.096 Y94.123 E17.06061
G1 X92.627 Y94.088 E17.34436
G1 X100.969 Y94.089 E17.62181
G1 X101.136 Y94.087 E17.62737
G1 X109.404 Y94.123 E17.90237
G1 X109.745 Y94.109 E17.91372
G1 X110.094 Y94.176 E17.92554
G1 X110.506 Y94.317 E17.94002
G1 X110.92 Y94.54 E17.95566
G1 X111.296 Y94.836 E17.97158
G1 X111.6 Y95.174 E17.9867
G1 X111.744 Y95.382 E17.99511
G1 X111.947 Y95.772 E18.00974
G1 X112.034 Y96.009 E18.01813
G1 X112.131 Y96.429 E18.03247
G1 X112.125 Y96.817 E18.04538
G1 X112.132 Y100.318 E18.16182
G1 X112.117 Y105.657 E18.3394
G1 X112.116 Y140.968 E19.51384
G1 X112.133 Y146.306 E19.69139
G1 X112.125 Y149.81 E19.80793
G1 X112.132 Y150.188 E19.82051
G1 X112.047 Y150.573 E19.83362
G1 X111.913 Y150.931 E19.84633
G1 X111.697 Y151.317 E19.86105
G1 X111.438 Y151.644 E19.87492
G1 X111.142 Y151.923 E19.88845
G1 X110.791 Y152.165 E19.90263
G1 X110.419 Y152.344 E19.91636
G1 X110.163 Y152.432 E19.92536
G1 X109.9 Y152.493 E19.93434
G1 X109.65 Y152.525 E19.94273
G0 F6000 X109.643 Y152.086
G0 X109.773 Y151.709
;TYPE:SKIN
G1 F1200 X109.424 Y151.712 E19.95433
G1 X100.868 Y151.747 E20.23891
G1 X92.527 Y151.746 E20.51633
G1 X92.359 Y151.748 E20.52192
G1 X83.737 Y151.711 E20.80869
G1 X83.365 Y151.606 E20.82155
G1 X83.016 Y151.424 E20.83464
G1 X82.699 Y151.167 E20.84821
G1 X82.444 Y150.852 E20.86169
G1 X82.398 Y150.773 E20.86473
G1 X87.387 Y150.773 E21.03067
G1 X87.387 Y148.625 E21.10211
G1 X87.466 Y148.479 E21.10763
G1 X87.617 Y147.979 E21.125
G1 X87.67 Y147.459 E21.14239
G1 X87.617 Y146.935 E21.15991
G1 X87.468 Y146.449 E21.17681
G1 X87.393 Y146.299 E21.18239
G1 X87.393 Y100.321 E22.71163
G1 X87.466 Y100.186 E22.71673
G1 X87.617 Y99.686 E22.7341
G1 X87.67 Y99.166 E22.75149
G1 X87.617 Y98.644 E22.76894
G1 X87.467 Y98.153 E22.78601
G1 X87.389 Y98.002 E22.79167
G1 X87.389 Y95.835 E22.86374
G1 X82.411 Y95.835 E23.02931
G1 X82.531 Y95.653 E23.03656
G1 X82.708 Y95.45 E23.04552
G1 X82.913 Y95.274 E23.05451
G1 X83.129 Y95.133 E23.06309
G1 X83.382 Y95.013 E23.0724
G1 X83.826 Y94.902 E23.08762
G1 X84.08 Y94.913 E23.09608
G1 X92.631 Y94.878 E23.38049
G1 X100.975 Y94.879 E23.65801
G1 X101.141 Y94.877 E23.66353
G1 X109.417 Y94.913 E23.93879
G1 X109.688 Y94.903 E23.94781
G1 X109.894 Y94.942 E23.95479
G1 X110.189 Y95.042 E23.96515
G1 X110.492 Y95.206 E23.97661
G1 X110.75 Y95.409 E23.98753
G1 X110.977 Y95.662 E23.99883
G1 X111.089 Y95.835 E24.00569
G1 X106.051 Y95.835 E24.17325
G1 X106.051 Y98.114 E24.24905
G1 X106.034 Y98.145 E24.25023
G1 X105.883 Y98.646 E24.26763
G1 X105.83 Y99.166 E24.28501
G1 X105.883 Y99.686 E24.3024
G1 X106.034 Y100.186 E24.31977
G1 X106.064 Y100.242 E24.32188
G1 X106.064 Y146.383 E25.85654
G1 X106.034 Y146.439 E25.85865
G1 X105.883 Y146.939 E25.87602
G1 X105.83 Y147.459 E25.89341
G1 X105.883 Y147.979 E25.91079
G1 X106.034 Y148.48 E25.9282
G1 X106.07 Y148.547 E25.93073
G1 X106.07 Y150.773 E26.00476
G1 X111.095 Y150.773 E26.1719
G1 X111.037 Y150.878 E26.17589
G1 X110.852 Y151.113 E26.18583
G1 X110.648 Y151.304 E26.19513
G1 X110.386 Y151.484 E26.2057
G1 X110.132 Y151.607 E26.21509
G1 X109.773 Y151.709 E26.2275
G1 F2700 E21.2275
G0 F6000 X109.849 Y151.978
G0 X83.706 Y151.93
G0 X83.106 Y151.729
G0 X82.403 Y151.166
G0 X82.075 Y150.572
G0 X83.049 Y150.493
G1 F2700 E26.2275
G0 F6000 X83.049 Y150.931
G1 F1200 X83.631 Y151.513 E26.25488
G0 F6000 X83.615 Y150.931
G1 F1200 X84.234 Y151.551 E26.28402
G0 F6000 X84.803 Y151.554
G1 F1200 X84.181 Y150.931 E26.3133
G0 F6000 X84.746 Y150.931
G1 F1200 X85.371 Y151.556 E26.34269
G0 F6000 X85.939 Y151.559
G1 F1200 X85.312 Y150.931 E26.37221
G0 F6000 X85.878 Y150.931
G1 F1200 X86.507 Y151.561 E26.40182
G0 F6000 X87.075 Y151.564
G1 F1200 X86.443 Y150.931 E26.43157
G0 F6000 X87.009 Y150.931
G1 F1200 X87.643 Y151.566 E26.46142
G0 F6000 X88.211 Y151.568
G1 F1200 X87.546 Y150.903 E26.4927
G0 F6000 X87.546 Y150.337
G1 F1200 X88.78 Y151.571 E26.55074
G0 F6000 X89.347 Y151.573
G1 F1200 X87.546 Y149.772 E26.63545
G0 F6000 X87.546 Y149.206
G1 F1200 X89.916 Y151.576 E26.74693
G0 F6000 X90.484 Y151.578
G1 F1200 X87.554 Y148.648 E26.88475
G0 F6000 X87.706 Y148.235
G1 F1200 X91.052 Y151.581 E27.04213
G0 F6000 X91.62 Y151.583
G1 F1200 X87.799 Y147.761 E27.22189
G0 F6000 X87.804 Y147.201
G1 F1200 X92.188 Y151.585 E27.4281
G0 F6000 X92.754 Y151.585
G1 F1200 X87.643 Y146.475 E27.66848
G0 F6000 X87.552 Y145.818
G1 F1200 X93.319 Y151.585 E27.93974
G0 F6000 X93.885 Y151.585
G1 F1200 X87.552 Y145.252 E28.23762
G0 F6000 X87.552 Y144.686
G1 F1200 X94.451 Y151.585 E28.56213
G0 F6000 X95.016 Y151.585
G1 F1200 X87.552 Y144.121 E28.91322
G0 F6000 X87.552 Y143.555
G1 F1200 X95.582 Y151.585 E29.29092
G0 F6000 X96.148 Y151.585
G1 F1200 X87.552 Y142.989 E29.69525
G0 F6000 X87.552 Y142.424
G1 F1200 X96.714 Y151.586 E30.1262
G0 F6000 X97.28 Y151.586
G1 F1200 X87.552 Y141.858 E30.58378
G0 F6000 X87.552 Y141.292
G1 F1200 X97.845 Y151.586 E31.06795
G0 F6000 X98.411 Y151.586
G1 F1200 X87.552 Y140.726 E31.57875
G0 F6000 X87.552 Y140.161
G1 F1200 X98.977 Y151.586 E32.11615
G0 F6000 X99.542 Y151.586
G1 F1200 X87.552 Y139.595 E32.68015
G0 F6000 X87.552 Y139.029
G1 F1200 X100.108 Y151.586 E33.27076
G0 F6000 X100.674 Y151.586
G1 F1200 X87.552 Y138.464 E33.88798
G0 F6000 X87.552 Y137.898
G1 F1200 X101.238 Y151.584 E34.53173
G0 F6000 X101.802 Y151.582
G1 F1200 X87.552 Y137.332 E35.20201
G0 F6000 X87.552 Y136.767
G1 F1200 X102.365 Y151.58 E35.89877
G0 F6000 X102.928 Y151.577
G1 F1200 X87.552 Y136.201 E36.622
G0 F6000 X87.552 Y135.635
G1 F1200 X103.492 Y151.575 E37.37177
G0 F6000 X104.055 Y151.573
G1 F1200 X87.552 Y135.07 E38.14802
G0 F6000 X87.552 Y134.504
G1 F1200 X104.619 Y151.571 E38.9508
G0 F6000 X105.182 Y151.568
G1 F1200 X87.552 Y133.938 E39.78006
G0 F6000 X87.552 Y133.373
G1 F1200 X105.745 Y151.566 E40.63581
G0 F6000 X106.309 Y151.564
G1 F1200 X87.552 Y132.807 E41.51808
G0 F6000 X87.552 Y132.241
G1 F1200 X105.91 Y150.599 E42.38158
G0 F6000 X106.243 Y150.932
G1 F1200 X106.872 Y151.561 E42.41117
G0 F6000 X107.435 Y151.559
G1 F1200 X106.809 Y150.932 E42.44064
G0 F6000 X107.374 Y150.932
G1 F1200 X107.999 Y151.557 E42.47004
G0 F6000 X108.562 Y151.554
G1 F1200 X107.94 Y150.932 E42.49929
G0 F6000 X108.506 Y150.932
G1 F1200 X109.125 Y151.552 E42.52843
G0 F6000 X109.687 Y151.548
G1 F1200 X109.071 Y150.932 E42.55741
G0 F6000 X109.637 Y150.932
G1 F1200 X110.133 Y151.428 E42.58074
G0 F6000 X110.488 Y151.218
G1 F1200 X110.203 Y150.932 E42.59417
G0 F6000 X110.203 Y150.493
G0 X109.22 Y150.386
G0 X106.35 Y150.033
G0 X105.91 Y150.033
G1 F1200 X87.552 Y131.676 E43.45765
G0 F6000 X87.552 Y131.11
G1 F1200 X105.91 Y149.468 E44.32115
G0 F6000 X105.91 Y148.902
G1 F1200 X87.552 Y130.544 E45.18466
G0 F6000 X87.552 Y129.978
G1 F1200 X105.786 Y148.213 E46.04235
G0 F6000 X105.677 Y147.538
G1 F1200 X87.552 Y129.413 E46.89489
G0 F6000 X87.552 Y128.847
G1 F1200 X105.715 Y147.01 E47.74923
G0 F6000 X105.83 Y146.559
G1 F1200 X87.552 Y128.281 E48.60897
G0 F6000 X87.552 Y127.716
G1 F1200 X105.904 Y146.067 E49.47217
G0 F6000 X105.904 Y145.502
G1 F1200 X87.552 Y127.15 E50.33539
G0 F6000 X87.552 Y126.584
G1 F1200 X105.904 Y144.936 E51.19861
G0 F6000 X105.904 Y144.37
G1 F1200 X87.552 Y126.019 E52.06181
G0 F6000 X87.552 Y125.453
G1 F1200 X105.904 Y143.805 E52.92503
G0 F6000 X105.904 Y143.239
G1 F1200 X87.552 Y124.887 E53.78825
G0 F6000 X87.552 Y124.322
G1 F1200 X105.904 Y142.673 E54.65145
G0 F6000 X105.904 Y142.107
G1 F1200 X87.552 Y123.756 E55.51465
G0 F6000 X87.552 Y123.19
G1 F1200 X105.904 Y141.542 E56.37787
G0 F6000 X105.904 Y140.976
G1 F1200 X87.552 Y122.625 E57.24107
G0 F6000 X87.552 Y122.059
G1 F1200 X105.904 Y140.41 E58.10427
G0 F6000 X105.904 Y139.845
G1 F1200 X87.552 Y121.493 E58.96749
G0 F6000 X87.552 Y120.927
G1 F1200 X105.904 Y139.279 E59.83071
G0 F6000 X105.904 Y138.713
G1 F1200 X87.552 Y120.362 E60.69391
G0 F6000 X87.552 Y119.796
G1 F1200 X105.904 Y138.148 E61.55713
G0 F6000 X105.904 Y137.582
G1 F1200 X87.552 Y119.23 E62.42035
G0 F6000 X87.552 Y118.665
G1 F1200 X105.904 Y137.016 E63.28355
G0 F6000 X105.904 Y136.451
G1 F1200 X87.552 Y118.099 E64.14677
G0 F6000 X87.552 Y117.533
G1 F1200 X105.904 Y135.885 E65.00999
G0 F6000 X105.904 Y135.319
G1 F1200 X87.552 Y116.968 E65.87319
G0 F6000 X87.552 Y116.402
G1 F1200 X105.904 Y134.754 E66.73641
G0 F6000 X105.904 Y134.188
G1 F1200 X87.552 Y115.836 E67.59964
G0 F6000 X87.552 Y115.271
G1 F1200 X105.904 Y133.622 E68.46283
G0 F6000 X105.904 Y133.056
G1 F1200 X87.552 Y114.705 E69.32603
G0 F6000 X87.552 Y114.139
G1 F1200 X105.904 Y132.491 E70.18925
G0 F6000 X105.904 Y131.925
G1 F1200 X87.552 Y113.574 E71.05245
G0 F6000 X87.552 Y113.008
G1 F1200 X105.904 Y131.359 E71.91565
G0 F6000 X105.904 Y130.794
G1 F1200 X87.552 Y112.442 E72.77887
G0 F6000 X87.552 Y111.877
G1 F1200 X105.904 Y130.228 E73.64207
G0 F6000 X105.904 Y129.662
G1 F1200 X87.552 Y111.311 E74.50527
G0 F6000 X87.552 Y110.745
G1 F1200 X105.904 Y129.097 E75.36849
G0 F6000 X105.904 Y128.531
G1 F1200 X87.552 Y110.179 E76.23171
G0 F6000 X87.552 Y109.614
G1 F1200 X105.904 Y127.965 E77.09491
G0 F6000 X105.904 Y127.4
G1 F1200 X87.552 Y109.048 E77.95813
G0 F6000 X87.552 Y108.482
G1 F1200 X105.904 Y126.834 E78.82136
G0 F6000 X105.904 Y126.268
G1 F1200 X87.552 Y107.917 E79.68455
G0 F6000 X87.552 Y107.351
G1 F1200 X105.904 Y125.703 E80.54778
G0 F6000 X105.904 Y125.137
G1 F1200 X87.552 Y106.785 E81.411
G0 F6000 X87.552 Y106.22
G1 F1200 X105.904 Y124.571 E82.2742
G0 F6000 X105.904 Y124.006
G1 F1200 X87.552 Y105.654 E83.13742
G0 F6000 X87.552 Y105.088
G1 F1200 X105.904 Y123.44 E84.00064
G0 F6000 X105.904 Y122.874
G1 F1200 X87.552 Y104.523 E84.86384
G0 F6000 X87.552 Y103.957
G1 F1200 X105.904 Y122.308 E85.72704
G0 F6000 X105.904 Y121.743
G1 F1200 X87.552 Y103.391 E86.59026
G0 F6000 X87.552 Y102.826
G1 F1200 X105.904 Y121.177 E87.45346
G0 F6000 X105.904 Y120.611
G1 F1200 X87.552 Y102.26 E88.31665
G0 F6000 X87.552 Y101.694
G1 F1200 X105.904 Y120.046 E89.17988
G0 F6000 X105.904 Y119.48
G1 F1200 X87.552 Y101.128 E90.0431
G0 F6000 X87.552 Y100.563
G1 F1200 X105.904 Y118.914 E90.9063
G0 F6000 X105.904 Y118.349
G1 F1200 X87.657 Y100.102 E91.76458
G0 F6000 X87.779 Y99.658
G1 F1200 X105.904 Y117.783 E92.61712
G0 F6000 X105.904 Y117.217
G1 F1200 X87.827 Y99.141 E93.46739
G0 F6000 X87.735 Y98.483
G1 F1200 X105.904 Y116.652 E94.322
G0 F6000 X105.904 Y116.086
